src/assets/icons/weeks,simple,31.svg

<svg width="48" height="48" viewBox="0 0 48 48" fill="none" xmlns="http://www.w3.org/2000/svg">
<rect opacity="0.2" x="5" y="5" width="38" height="38" rx="4" fill="black"/>
<path d="M5 13C5 9.22876 5 7.34315 6.17157 6.17157C7.34315 5 9.22876 5 13 5H35C38.7712 5 40.6569 5 41.8284 6.17157C43 7.34315 43 9.22876 43 13V15H5V13Z" fill="black"/>
<path d="M18.0852 38.2386C22.0057 38.2386 24.8097 36.0824 24.8011 33.0994C24.8097 30.9261 23.429 29.375 20.8636 29.0511V28.9148C22.8153 28.5653 24.1619 27.1847 24.1534 25.2244C24.1619 22.4716 21.75 20.3068 18.1364 20.3068C14.5568 20.3068 11.8636 22.4034 11.8125 25.4205H15.3494C15.392 24.0909 16.6108 23.2301 18.1193 23.2301C19.6108 23.2301 20.608 24.1335 20.5994 25.446C20.608 26.8182 19.4403 27.7472 17.7614 27.7472H16.1335V30.4574H17.7614C19.7386 30.4574 20.9744 31.446 20.9659 32.8523C20.9744 34.2415 19.7812 35.196 18.0938 35.196C16.4659 35.196 15.2472 34.3438 15.179 33.0653H11.4631C11.5227 36.1165 14.25 38.2386 18.0852 38.2386ZM35.0476 20.5455H31.5788L27.2578 23.2812V26.554L31.255 24.0483H31.3572V38H35.0476V20.5455Z" fill="black"/>
</svg>

<svg xmlns="http://www.w3.org/2000/svg" width="48" height="48" fill="none" viewBox="0 0 48 48">
  <rect width="38" height="38" x="5" y="5" fill="#000" opacity=".2" rx="4"/>
  <path fill="#000" d="M5 13c0-3.771 0-5.657 1.172-6.828C7.343 5 9.229 5 13 5h22c3.771 0 5.657 0 6.828 1.172C43 7.343 43 9.229 43 13v2H5v-2zM18.085 38.239c3.92 0 6.725-2.157 6.716-5.14.009-2.173-1.372-3.724-3.937-4.048v-.136c1.951-.35 3.298-1.73 3.29-3.69.008-2.753-2.404-4.918-6.018-4.918-3.58 0-6.272 2.096-6.323 5.114h3.536c.043-1.33 1.262-2.19 2.77-2.19 1.492 0 2.489.902 2.48 2.215.009 1.372-1.159 2.301-2.838 2.301h-1.627v2.71h1.627c1.978 0 3.213.989 3.205 2.395.008 1.39-1.185 2.344-2.872 2.344-1.628 0-2.847-.852-2.915-2.13h-3.716c.06 3.05 2.787 5.173 6.622 5.173zm16.963-17.693h-3.47l-4.32 2.735v3.273l3.997-2.506h.102V38h3.69V20.546z"/>
</svg>
